icons/respirology.svg

<svg width="48" height="48" viewBox="0 0 48 48" fill="none" xmlns="http://www.w3.org/2000/svg">
<path d="M17.706 14.2402C21.5369 14.2371 21.489 19.0773 21.4644 21.5627C21.4625 21.7523 21.4608 21.9288 21.4609 22.0877C21.4613 22.5952 21.4841 23.1943 21.5089 23.8488C21.6242 26.8864 21.7848 31.1178 19.9704 32.9302C17.7231 35.1751 13.2258 36.3003 10.9752 34.4329C8.72449 32.5656 12.458 14.2445 17.706 14.2402Z" fill="black"/>
<path d="M26.4901 21.56C26.4615 19.0746 26.4057 14.2345 30.2366 14.2314C35.4845 14.2271 39.2481 32.542 37.0005 34.413C34.7529 36.284 30.2537 35.1662 28.0028 32.925C26.1854 31.1156 26.3391 26.8839 26.4494 23.8462C26.4732 23.1917 26.4949 22.5925 26.4945 22.085C26.4944 21.9259 26.4923 21.7498 26.4901 21.56Z" fill="black"/>
<path fill-rule="evenodd" clip-rule="evenodd" d="M23.0149 5.99996L9.00024 5.99996C7.34339 5.99996 6.00024 7.34311 6.00024 8.99996V39C6.00024 40.6568 7.34339 42 9.00024 42H39.0002C40.6571 42 42.0002 40.6568 42.0002 39V8.99996C42.0002 7.34311 40.6571 5.99996 39.0002 5.99996L24.9679 5.99996C24.9679 5.99996 24.9679 5.99955 23.9914 5.9999C23.0149 5.99955 23.0149 5.99996 23.0149 5.99996ZM23.9914 22.0446C24.0892 22.1338 24.1915 22.2141 24.2969 22.286C24.6296 22.5127 24.9577 22.6305 25.2009 22.6925C25.3238 22.7238 25.4295 22.742 25.5097 22.7527C25.55 22.7581 25.5844 22.7616 25.6119 22.7639C25.6153 22.7642 25.6187 22.7645 25.6219 22.7647C25.6316 22.7655 25.6403 22.7661 25.648 22.7666L25.6621 22.7674L25.6681 22.7677L25.6722 22.7679C25.6722 22.7679 25.6735 22.7679 25.7154 21.7688C25.7572 20.7697 25.7585 20.7697 25.7585 20.7697L25.7597 20.7698L25.762 20.7699L25.7661 20.7701L25.7729 20.7705L25.7804 20.771L25.774 20.7702C25.7607 20.7684 25.7327 20.764 25.6953 20.7545C25.6177 20.7347 25.5183 20.6979 25.4235 20.6333C25.2877 20.5407 25.0059 20.2958 25.0066 19.5104C25.0076 18.4162 25.0097 15.0386 25.0115 11.9347L25.0138 7.99996H39.0002C39.5525 7.99996 40.0002 8.44768 40.0002 8.99996V39C40.0002 39.5522 39.5525 40 39.0002 40H9.00024C8.44796 40 8.00024 39.5522 8.00024 39V8.99996C8.00024 8.44768 8.44796 7.99996 9.00024 7.99996H22.9691L22.9713 11.9347C22.9732 15.0386 22.9752 18.4162 22.9763 19.5104C22.977 20.2958 22.6952 20.5407 22.5593 20.6333C22.4645 20.6979 22.3651 20.7347 22.2876 20.7545C22.2501 20.764 22.2222 20.7684 22.2089 20.7702L22.2024 20.771L22.21 20.7705L22.2167 20.7701L22.2209 20.7699L22.2232 20.7698L22.2244 20.7697C22.2244 20.7697 22.2256 20.7697 22.2675 21.7688C22.3094 22.7679 22.3106 22.7679 22.3106 22.7679L22.3147 22.7677L22.3207 22.7674L22.3348 22.7666C22.3451 22.766 22.3572 22.7651 22.371 22.7639C22.3984 22.7616 22.4328 22.7581 22.4731 22.7527C22.5534 22.742 22.6591 22.7238 22.782 22.6925C23.0251 22.6305 23.3533 22.5127 23.6859 22.286C23.7914 22.2141 23.8936 22.1338 23.9914 22.0446Z" fill="black"/>
</svg>

<svg
  xmlns="http://www.w3.org/2000/svg"
  width="24"
  height="24"
  viewBox="0 0 24 24"
  fill="none"
  stroke="currentColor"
  stroke-width="2"
  stroke-linecap="round"
  stroke-linejoin="round"
>
  <path d="M17.706 14.24c3.83-.003 3.783 4.837 3.758 7.323l-.003.525c0 .507.023 1.106.048 1.76.115 3.038.276 7.27-1.539 9.082-2.247 2.245-6.744 3.37-8.995 1.503s1.483-20.188 6.731-20.193" />
  <path d="M26.49 21.56c-.028-2.485-.084-7.325 3.747-7.329 5.247-.004 9.011 18.311 6.764 20.182-2.248 1.871-6.747.753-8.998-1.488-1.818-1.81-1.664-6.041-1.554-9.079.024-.654.046-1.253.045-1.761q0-.24-.004-.525" />
  <path
    fill-rule="evenodd"
    d="M23.015 6H9a3 3 0 0 0-3 3v30a3 3 0 0 0 3 3h30a3 3 0 0 0 3-3V9a3 3 0 0 0-3-3H23.015m.976 16.045q.147.134.306.241a2.9 2.9 0 0 0 1.315.478h.01l.026.003h.024s.002 0 .043-.998c.042-1 .044-1 .044-1h.003l.004.001h.007l.007.001h-.006a.87.87 0 0 1-.35-.137c-.136-.093-.418-.338-.417-1.124l.005-7.575L25.014 8H39a1 1 0 0 1 1 1v30a1 1 0 0 1-1 1H9a1 1 0 0 1-1-1V9a1 1 0 0 1 1-1h13.97l.001 3.935.005 7.575c.001.786-.28 1.03-.417 1.123a.9.9 0 0 1-.35.137l-.007.001h.015l.004-.001h.003s.002 0 .043.999c.042.999.044.999.044.999h.01l.014-.001a1 1 0 0 0 .138-.014 2.87 2.87 0 0 0 1.518-.708"
    clip-rule="evenodd"
  />
</svg>
